public/img/logo-social.svg

<svg xmlns="http://www.w3.org/2000/svg" fill="none" viewBox="0 0 11730 12905"><path fill="#0C0C0C" d="M11664.8 0H47.365v12892H11664.8V0Z"/><path fill="#fff" d="m2539.88 6763.81 2258.85 1835.56v-879.14L3146.16 6445.07l1652.57-1275.16v-879.14L2539.88 6126.33v637.48ZM5110.6 8601.23h717.35l768.24-4305.07h-706.76L5110.6 8601.23ZM6913.44 4290.77v879.14l1652.58 1275.16-1652.58 1275.16v879.14L9172.1 6763.81v-637.48L6913.44 4290.77Z"/></svg>

<svg viewBox="0 0 11730 12905" fill="none" xmlns="http://www.w3.org/2000/svg">
<path d="M11664.8 0H47.3652V12892H11664.8V0Z" fill="#0C0C0C"/>
<path d="M2539.88 6763.81L4798.73 8599.37V7720.23L3146.16 6445.07L4798.73 5169.91V4290.77L2539.88 6126.33V6763.81Z" fill="white"/>
<path d="M5110.6 8601.23H5827.95L6596.19 4296.16H5889.43L5110.6 8601.23Z" fill="white"/>
<path d="M6913.44 4290.77V5169.91L8566.02 6445.07L6913.44 7720.23V8599.37L9172.1 6763.81V6126.33L6913.44 4290.77Z" fill="white"/>
</svg>
